content/fr/images/duke/life-ring.svg

<svg height="1000" width="1000.0" xmlns="http://www.w3.org/2000/svg"><path d="m500 0c276.2 0 500 223.8 500 500s-223.8 500-500 500-500-223.8-500-500 223.8-500 500-500z m0 71.4c-72.5 0-141.2 18.4-201.5 50.3l108.3 108.2c29.6-10 60.8-15.6 93.2-15.6 32.9 0 63.6 5.6 93.2 15.6l108.3-108.2c-60.3-31.9-129-50.3-201.5-50.3z m-378.3 630.1l108.2-108.3c-10-29.6-15.6-60.8-15.6-93.2 0-32.9 5.6-63.6 15.6-93.2l-108.2-108.3c-31.9 60.3-50.3 129-50.3 201.5s18.4 141.2 50.3 201.5z m378.3 227.1c72.5 0 141.2-18.4 201.5-50.3l-108.3-108.2c-29.6 10-60.3 15.6-93.2 15.6-32.4 0-63.6-5.6-93.2-15.6l-108.3 108.2c60.3 31.9 129 50.3 201.5 50.3z m0-214.3c118.3 0 214.3-96 214.3-214.3s-96-214.3-214.3-214.3-214.3 96-214.3 214.3 96 214.3 214.3 214.3z m270.1-121.1l108.2 108.3c31.9-60.3 50.3-129 50.3-201.5s-18.4-141.2-50.3-201.5l-108.2 108.3c10 29.6 15.6 60.8 15.6 93.2s-5.6 63.6-15.6 93.2z" /></svg>

<?xml version="1.0" encoding="utf-8"?>
<!-- Generator: Adobe Illustrator 24.3.0, SVG Export Plug-In . SVG Version: 6.00 Build 0)  -->
<svg version="1.1" id="Calque_1" xmlns="http://www.w3.org/2000/svg" xmlns:xlink="http://www.w3.org/1999/xlink" x="0px" y="0px"
	 viewBox="0 0 1000 1000" style="enable-background:new 0 0 1000 1000;" xml:space="preserve">
<style type="text/css">
	.st0{fill:#333333;}
</style>
<path class="st0" d="M500,0c276.2,0,500,223.8,500,500s-223.8,500-500,500S0,776.2,0,500S223.8,0,500,0z M500,71.4
	c-72.5,0-141.2,18.4-201.5,50.3l108.3,108.2c29.6-10,60.8-15.6,93.2-15.6c32.9,0,63.6,5.6,93.2,15.6l108.3-108.2
	C641.2,89.8,572.5,71.4,500,71.4z M121.7,701.5l108.2-108.3c-10-29.6-15.6-60.8-15.6-93.2c0-32.9,5.6-63.6,15.6-93.2L121.7,298.5
	c-31.9,60.3-50.3,129-50.3,201.5S89.8,641.2,121.7,701.5z M500,928.6c72.5,0,141.2-18.4,201.5-50.3L593.2,770.1
	c-29.6,10-60.3,15.6-93.2,15.6c-32.4,0-63.6-5.6-93.2-15.6L298.5,878.3C358.8,910.2,427.5,928.6,500,928.6z M500,714.3
	c118.3,0,214.3-96,214.3-214.3s-96-214.3-214.3-214.3s-214.3,96-214.3,214.3S381.7,714.3,500,714.3z M770.1,593.2l108.2,108.3
	c31.9-60.3,50.3-129,50.3-201.5s-18.4-141.2-50.3-201.5L770.1,406.8c10,29.6,15.6,60.8,15.6,93.2S780.1,563.6,770.1,593.2z"/>
</svg>
